src/icons/outline/symbols/variable.svg

<svg width="24" height="24" viewBox="0 0 24 24" fill="none" xmlns="http://www.w3.org/2000/svg">
<g clip-path="url(#clip0_6021_973)">
<path d="M20.2354 21.4918C20.6532 21.4918 20.9999 21.8337 21 22.2457C21 22.6579 20.6532 22.9996 20.2354 22.9996H3.76465C3.34675 22.9996 3 22.6579 3 22.2457C3.00013 21.8337 3.34684 21.4918 3.76465 21.4918H20.2354Z" fill="#3C3B44"/>
<path d="M19.1553 1.08754C19.5324 0.896558 19.9915 1.02715 20.1953 1.39906C20.3887 1.7709 20.2559 2.22349 19.8789 2.42445L5.38477 10.0436L19.8789 17.6725C20.256 17.8735 20.3889 18.326 20.1953 18.6979C20.0527 18.9491 19.7975 19.0991 19.5225 19.0993V19.0895C19.4002 19.0895 19.2772 19.06 19.165 18.9996L4.40625 11.2389C4.33533 11.1989 4.28445 11.159 4.22363 11.109C3.63247 10.526 3.63247 9.56116 4.22363 8.97816C4.27449 8.92801 4.33509 8.87747 4.40625 8.8473L19.1553 1.08754Z" fill="#3C3B44"/>
</g>
<defs>
<clipPath id="clip0_6021_973">
<rect width="24" height="24" fill="white"/>
</clipPath>
</defs>
</svg>

<svg xmlns="http://www.w3.org/2000/svg" width="24" height="24" fill="none" viewBox="0 0 24 24"><g fill="currentColor" clip-path="url(#a)"><path d="M20.235 21.492c.418 0 .765.342.765.754a.765.765 0 0 1-.765.754H3.765A.765.765 0 0 1 3 22.246c0-.412.347-.754.765-.754zm-1.08-20.404a.78.78 0 0 1 1.04.311.756.756 0 0 1-.316 1.025l-14.494 7.62 14.494 7.628c.377.201.51.654.316 1.026a.78.78 0 0 1-.672.401v-.01a.75.75 0 0 1-.358-.09L4.406 11.24c-.07-.04-.122-.08-.182-.13a1.5 1.5 0 0 1 0-2.13.6.6 0 0 1 .182-.132z"/></g><defs><clipPath id="a"><path fill="currentColor" d="M0 0h24v24H0z"/></clipPath></defs></svg>
